X:1
T:Burney
T:Dorset
%%score { 1 | 2 }
L:1/8
M:3/4
K:F
V:1 treble 
V:2 bass 
V:1
 z2 z2 D2 | A4 B2 | (A2 G2) F2 | (G2 F2) E2 | D4 B2 | A4 d2 | (c2 F2) E2 | F4 D2 | A4 B2 | %9
 (A2 G2) F2 | (G2 F2) E2 | D4 B2 | A4 d2 | (c2 F2) E2 | F4 A2 | d4 e2 | f4 e2 | (d2 e2) d2 | %18
 c4 A2 | B4 A2 | (G2 F>E) (F>G) | E4 E2 | F4 (GA/B/) | (B2 A2) d2 | c2 d4 | e4 A2 | (B2 A2) G2 | %27
 (F2 G2) E2 | D6 | z2 z2 D2 | A4 B2 | (A2 G2) F2 | (G2 F2) E2 | D4 B2 | A4 d2 | (c2 F2) E2 | %36
 F4 D2 | A4 B2 | (A2 G2) F2 | (G2 F2) E2 | D4 B2 | A4 d2 | (c2 F2) E2 | F4 A2 | d4 e2 | f4 e2 | %46
 (d2 e2) d2 | c4 A2 | B4 A2 | (G2 F>E) (F>G) | E4 E2 | F4 (GA/B/) | (B2 A2) d2 | c2 d4 | e4 A2 | %55
 (B2 A2) G2 | (F2 G2) E2 | D6 |] %58
V:2
 z2 z2 D,2 | D,4 G,2 | (F,2 E,2) D,2 | (G,2 A,2) A,,2 | D,4 G,2 | F,4 B,,2 | (F,,2 C,2) C,2 | %7
 [F,,F,]4 D,2 | D,4 G,2 | (F,2 E,2) D,2 | (G,2 A,2) A,,2 | D,4 G,2 | F,4 B,,2 | (F,,2 C,2) C,2 | %14
 [F,,F,]4 A,2 | F,4 C,2 | D,4 A,,2 | B,,4 B,,2 | A,,4 F,2 | G,4 F,2 | E,2 D,4 | A,,4 A,,2 | %22
 D,4 E,2 | F,4 D,2 | A,,2 B,,4 | A,,4 D,2 | (G,2 F,2) (E,2 | D,2 A,2) A,,2 | D,6 | z2 z2 D,2 | %30
 D,4 G,2 | (F,2 E,2) D,2 | (G,2 A,2) A,,2 | D,4 G,2 | F,4 B,,2 | (F,,2 C,2) C,2 | [F,,F,]4 D,2 | %37
 D,4 G,2 | (F,2 E,2) D,2 | (G,2 A,2) A,,2 | D,4 G,2 | F,4 B,,2 | (F,,2 C,2) C,2 | [F,,F,]4 A,2 | %44
 F,4 C,2 | D,4 A,,2 | B,,4 B,,2 | A,,4 F,2 | G,4 F,2 | E,2 D,4 | A,,4 A,,2 | D,4 E,2 | F,4 D,2 | %53
 A,,2 B,,4 | A,,4 D,2 | (G,2 F,2) (E,2 | D,2 A,2) A,,2 | D,6 |] %58

